X: 138
T:Vent qui vente
M:3/4
L:1/4
R:Bourree-Waltz
O:A. Millien, 'L'Enfant noy', late C19th
D:La Chavannee : Bateau Dor : Modal MPJ11100
Z:Steve Mansfield 12/3/00
K:G
B2G/F/ | GG/F/G/A/ | BdB | AG/F/G/A/ | B2G/F/ | GG/F/G/A/| BdB | A3 :|
|: ABc | d3 | cBA/G/ | A2B/A/ | G>AG/F/ | E>GA/B/ | c2B | AG2 :|

